X: 20
T:SCOTTISH DU PERE DURAND
M:4/4
L:1/8
Q:1/4=80
K:C
|cBA/2B/2A/2B/2 AGEC/2E/2|1cBA/2B/2A/2B/2 A3/2G/2G2:|2cBA/2B/2A/2B/2 d3/
2c/2c2|!
GA/2B/2c2 GA/2B/2A2|GA/2B/2cB/2A/2 GFE2|GA/2B/2c zGA/2B/2A2|GA/2B/2cB/2A
/2 Bdc2|
